svgs/sharp-duotone-regular/shirt-running.svg

<svg xmlns="http://www.w3.org/2000/svg" viewBox="0 0 384 512"><!--! Font Awesome Pro 7.1.0 by @fontawesome - https://fontawesome.com License - https://fontawesome.com/license (Commercial License) Copyright 2025 Fonticons, Inc. --><path opacity=".4" fill="currentColor" d="M48 261.7L98.9 159.9C122.2 184.6 155.3 200 192 200s69.8-15.4 93.1-40.1l22 43.9-1.1 .8-257.9 186.3 0-129.2zM48 450l280.8-202.8 7.2 14.4 0 202.3-288 0 0-14z"/><path fill="currentColor" d="M192 152c-44.2 0-80-35.8-80-80l0-72-48 0 0 122.3-61.5 122.9-2.5 5.1 0 261.7 384 0 0-261.7-2.5-5.1-61.5-122.9 0-122.3-48 0 0 72c0 44.2-35.8 80-80 80zm0 48c36.7 0 69.8-15.4 93.1-40.1l22 43.9-1.1 .8-257.9 186.3 0-129.2 50.9-101.8C122.2 184.6 155.3 200 192 200zM48 450l280.8-202.8 7.2 14.4 0 202.3-288 0 0-14z"/></svg>

<svg xmlns="http://www.w3.org/2000/svg" viewBox="0 0 384 512"><!--! Font Awesome Pro 6.7.2 by @fontawesome - https://fontawesome.com License - https://fontawesome.com/license (Commercial License) Copyright 2024 Fonticons, Inc. --><defs><style>.fa-secondary{opacity:.4}</style></defs><path class="fa-secondary" d="M48 261.7L98.9 159.9C122.2 184.6 155.3 200 192 200s69.8-15.4 93.1-40.1l22 43.9c-.4 .2-.7 .5-1.1 .8L48 390.8l0-129.2zM48 450L328.8 247.3l7.2 14.4L336 464 48 464l0-14z"/><path class="fa-primary" d="M192 152c-44.2 0-80-35.8-80-80l0-48 0-24L64 0l0 24 0 48 0 50.3L2.5 245.3 0 250.3 0 256 0 488l0 24 24 0 336 0 24 0 0-24 0-232 0-5.7-2.5-5.1L320 122.3 320 72l0-48 0-24L272 0l0 24 0 48c0 44.2-35.8 80-80 80zm0 48c36.7 0 69.8-15.4 93.1-40.1l22 43.9c-.4 .2-.7 .5-1.1 .8L48 390.8l0-129.2L98.9 159.9C122.2 184.6 155.3 200 192 200zM48 450L328.8 247.3l7.2 14.4L336 464 48 464l0-14z"/></svg>
